X:1
T:Title
%%score { ( 1 3 ) | ( 2 4 ) }
L:1/8
Q:1/4=92
M:6/8
K:Ab
V:1 treble nm="Grand Piano"
V:3 treble 
V:2 bass 
V:4 bass 
V:1
 [Ec][CA][_CF] [=CE]2 C | [Ec][CA][_CF] z2 A, | GGG GFE | [EA]2 B c3 | %4
w: Thoro~Harris * * * *||||
 [Ec][A,EA][A,DF][K:bass] [A,CE]2 [E,C] | [Ec][EA][DF] [CE]3 | GGG GFE | .c3 z3 | %8
w: ||||
 [Ge]2 [GB] [GB]>[Ac][Bd] | [Ac]6 | [C=Ec]2 [CEG] [B,EG]>[A,FA][GB] | [FA]6 | %12
w: ||||
 [DFA][A,EG][A,DF] [A,_CF][A,CG][A,CF] | [A,CE]2 [A,CA] [Ec]2 [Af] | [Ae][Ac][Fd] [Ec]2 [DB] | %15
w: |||
 [CA]6 |] %16
w: |
V:2
 [A,,A,][A,,E,][A,,=D,] [A,,E,]2 [A,,E,] | [A,,A,][A,,E,][A,,=D,] .[A,,E,]3 | %2
 [E,B,D][E,B,D][E,B,D] [E,B,D][E,A,D][D,G,] | [C,A,]2 [E,G,E] [A,E]3 | [A,,A,]C,D, A,,2 A,, | %5
 [A,,A,][C,A,][D,A,] [A,,A,]3 | [E,B,D][E,B,D][E,B,D] [E,B,D][E,A,D][E,G,D] | [A,E]EE, A,3 | %8
 [E,B,]2 [E,E] [E,D]>[E,C][E,B,] | z CA, .A,3 | C,2 C, C,>C,[C,G,] | z CF, .F,3 | D,D,D, D,D,D, | %13
 z3 .A,3 | [E,C][F,A,][D,A,] [E,A,]2 [E,G,] | [A,,A,]6 |] %16
V:3
 x6 | z3 [=CE]3 | x6 | x6 | x3[K:bass] x3 | x6 | x6 | z F[DGB] [CA]3 | x6 | z2 F .E3 | x6 | %11
 .A,2 D .C3 | x6 | x6 | x6 | x6 |] %16
V:4
 x6 | x6 | x6 | x6 | x6 | x6 | x6 | .E,3 z3 | x6 | .A,3 z3 | x6 | .F,3 z3 | x6 | %13
 A,,C,E, z C[=D,_C] | x6 | x6 |] %16

